!!!COM: Igor (Fyodorovich) Stravinsky
!!!OTL: [T382_Str-24/12/42-49]
**kern	**kern	**kern
!!pagebreak:original
*clefF4	*clefG2	*clefG2
*k[]	*k[]	*k[]
*C:	*C:	*C:
*M2/4	*M2/4	*M2/4
=1	=1	=1
!	!	!LO:TX:t=[quarter]=92
!	!	!LO:TX:b:t=[p]
!	!	!LO:TX:b:t=[p]
16c#XLL	2r	(8ff#XL 8aa
16D	.	.
16B	.	8bJ
16C#XJJ	.	.
16ALL	.	8.ff#L 8.aa
16BB	.	.
16B	.	.
16AAJJ	.	16bJk)
=2	=2	=2
16ALL	2r	(16ff#XLL 16aa
16GG#X	.	16bJ
16A	.	8ff#J 8aa)
16AAJJ	.	.
16C#XLL	.	(16eeLL 16gg#X
16E	.	16aJ
16A	.	8eeJ 8gg#)
16c#XJJ	.	.
=3	=3	=3
2r	.	(8ee-XL 8ggn
.	.	.
.	16e-X	16dd'Jk 16bb-X)
.	.	16r
.	16cLL	8r
.	16f	.
.	.	8dd-X' 8gg
.	16d-XJJ	.
=4	=4	=4
2r	16gLL	8cc'L 8ee-X
.	.	.
.	16e-X	8a-X'J 8cc
.	16a-XJJ	.
.	.	4b-X 4dd-X
.	16d-X	.
.	16g	.
.	.	.
!!linebreak:original
=5	=5	=5
2r	.	(8aL 8cc
.	16f	.
.	.	16a-X'Jk 16ff)
.	16d-XJJ	16r
.	16gLL	8r
.	.	.
.	16e-X	8f' 8b-X
.	16a-XJJ	.
=6	=6	=6
2r	16cLL	(8dd-XL 8ff 8aa-X
.	16f	.
.	16b-X	16cc'Jk 16ddd-X)
.	16B-XJJ	16r
.	16e-XLL	8r
.	16a-X	.
.	.	8ee-X 8gg 8bb-X
.	16d-XJJ	.
=7	=7	=7
2r	16gLL	(8ccL 8ee-X
.	.	.
.	16e-X	8aa-XJ 8ccc)
.	16a-XJJ	.
.	.	(8b-XL 8dd-X
.	16d-X	.
.	16g	8ggJ 8bb-X)
.	.	.
=8	=8	=8
2r	16cLL	(8aL 8cc
.	16f	.
.	.	16ffJk 16aa)
.	16cJJ	16r
.	16fLL	8r
.	.	.
.	16d	8bn 8dd
.	16fJJ	.
=	=	=
*-	*-	*-
!!!system-decoration: [({(s1,s2,s3)})]
